src/assets/history/illinois.svg

<?xml version="1.0" encoding="UTF-8" standalone="no"?><!-- Generator: Gravit.io --><svg xmlns="http://www.w3.org/2000/svg" xmlns:xlink="http://www.w3.org/1999/xlink" style="isolation:isolate" viewBox="0 0 200 200" width="200pt" height="200pt"><g><path d=" M 0 0 L 200 0 L 200 200 L 0 200 L 0 0 Z " fill="rgb(18,41,75)"/><g><path d=" M 143.263 71.025 L 143.263 37.5 L 56.737 37.5 L 56.737 71.185 L 75.894 71.185 L 75.894 128.815 L 56.737 128.815 L 56.737 162.5 L 143.263 162.5 L 143.263 128.656 L 124.106 128.656 L 124.106 71.025 L 143.263 71.025 L 143.263 71.025 Z  M 123.946 133.445 L 138.314 133.445 L 138.314 157.391 L 61.526 157.391 L 61.526 133.445 L 75.894 133.445 C 78.608 133.445 80.683 131.37 80.683 128.656 L 80.683 71.025 C 80.683 68.311 78.608 66.236 75.894 66.236 L 61.526 66.236 L 61.526 42.289 L 138.314 42.289 L 138.314 66.236 L 123.946 66.236 C 121.232 66.236 119.157 68.311 119.157 71.025 L 119.157 128.656 C 119.157 131.37 121.392 133.445 123.946 133.445 Z " fill="rgb(255,255,254)"/><path d=" M 123.946 66.236 L 138.314 66.236 L 138.314 42.289 L 61.526 42.289 L 61.526 66.236 L 75.894 66.236 C 78.608 66.236 80.683 68.311 80.683 71.025 L 80.683 128.656 C 80.683 131.37 78.608 133.445 75.894 133.445 L 61.526 133.445 L 61.526 157.391 L 138.314 157.391 L 138.314 133.445 L 123.946 133.445 C 121.232 133.445 119.157 131.37 119.157 128.656 L 119.157 71.025 C 119.157 68.471 121.392 66.236 123.946 66.236 Z " fill="rgb(232,75,55)"/></g></g></svg>

<svg enable-background="new 0 0 200 200" viewBox="0 0 200 200" xmlns="http://www.w3.org/2000/svg"><path d="m0 0h200v200h-200z" fill="#12294b"/><path d="m143.3 71v-33.5h-86.6v33.7h19.2v57.6h-19.2v33.7h86.5v-33.8h-19.2v-57.7zm-19.4 62.4h14.4v23.9h-76.8v-23.9h14.4c2.7 0 4.8-2.1 4.8-4.8v-57.6c0-2.7-2.1-4.8-4.8-4.8h-14.4v-23.9h76.8v23.9h-14.4c-2.7 0-4.8 2.1-4.8 4.8v57.6c.1 2.8 2.3 4.8 4.8 4.8z" fill="#fffffe"/><path d="m123.9 66.2h14.4v-23.9h-76.8v23.9h14.4c2.7 0 4.8 2.1 4.8 4.8v57.6c0 2.7-2.1 4.8-4.8 4.8h-14.4v23.9h76.8v-23.9h-14.4c-2.7 0-4.8-2.1-4.8-4.8v-57.6c.1-2.5 2.3-4.8 4.8-4.8z" fill="#e84b37"/></svg>
